X:189
T:Untitled. HA.188
M:C
L:1/8
Q:1/4=150
S:Henry Atkinson’s original MS,Hartburn,N’umberland,1694.
O:England
A:Hartburn,Northumberland
N:No key sig. Sounds more ‘comfortable’ in Gmaj
N:F crs in line 1 are slashed. NBr
H:1/8
Z:vmp.Neil Brookes, Jan.2004
K:D
“_No key sig in MS”
“^-“f2 AA “^v”g2 fe|”^=”f2 Ag BG ge|
“^=”f2 AA “^v”g2 fe|f/g/ a e/f/ g”^v”d2g2:|
|:AB de fd ge|fd ge d/c/B/A/ G/A/B/G/|
AB de fd ge|f/g/ a e/f/ g “^v”d2g2:|
W: Some bowing downstrokes (“v”) and slashes (- , =) indicated.

